protocol-expert/img/icons/Google Chrome.svg

<svg width="31" height="30" viewBox="0 0 31 30" fill="none" xmlns="http://www.w3.org/2000/svg">
<path d="M15.0867 0.00265648C15.0867 0.00265648 23.9283 -0.392695 28.616 8.46271H14.3344C14.3344 8.46271 11.6392 8.37615 9.33684 11.6342C8.67548 13.0016 7.96458 14.4103 8.76235 17.1864C7.61313 15.2464 2.66113 6.65462 2.66113 6.65462C2.66113 6.65462 6.154 0.352741 15.0866 0.00265648H15.0867Z" fill="#EF3F36"/>
<path d="M28.1572 22.4833C28.1572 22.4833 24.0773 30.3131 14.041 29.9259C15.2811 27.7882 21.1838 17.6024 21.1838 17.6024C21.1838 17.6024 22.61 15.3206 20.9276 11.7043C20.0718 10.4481 19.1996 9.13419 16.3889 8.4339C18.65 8.41343 28.5913 8.4339 28.5913 8.4339C28.5913 8.4339 32.3156 14.5999 28.1572 22.4833Z" fill="#FCD900"/>
<path d="M2.07841 22.5448C2.07841 22.5448 -2.68764 15.1103 2.66946 6.64209C3.90543 8.77979 9.80814 18.9656 9.80814 18.9656C9.80814 18.9656 11.0813 21.338 15.0619 21.6921C16.5791 21.581 18.158 21.4862 20.1753 19.4145C19.0632 21.3751 14.0739 29.9422 14.0739 29.9422C14.0739 29.9422 6.84845 30.074 2.07829 22.5448H2.07841Z" fill="#61BC5B"/>
<path d="M14.0366 29.9999L16.0455 21.647C16.0455 21.647 18.2528 21.4739 20.1047 19.4517C18.9555 21.4658 14.0366 29.9999 14.0366 29.9999Z" fill="#5AB055"/>
<path d="M8.35742 15.0939C8.35742 11.4117 11.3543 8.42554 15.0497 8.42554C18.745 8.42554 21.7419 11.4117 21.7419 15.0939C21.7419 18.7761 18.745 21.7622 15.0497 21.7622C11.3543 21.7581 8.35742 18.7761 8.35742 15.0939Z" fill="white"/>
<path d="M9.47754 15.0939C9.47754 12.0295 11.9701 9.54175 15.0497 9.54175C18.125 9.54175 20.6217 12.0254 20.6217 15.0939C20.6217 18.1583 18.1292 20.6461 15.0497 20.6461C11.9743 20.6461 9.47754 18.1583 9.47754 15.0939Z" fill="url(#paint0_linear_404_172)"/>
<path d="M28.5871 8.43813L20.3157 10.8559C20.3157 10.8559 19.0674 9.03115 16.3848 8.43813C18.712 8.42573 28.5871 8.43813 28.5871 8.43813Z" fill="#EACA05"/>
<path d="M8.60118 16.8815C7.43951 14.8756 2.66113 6.65454 2.66113 6.65454L8.78712 12.6927C8.78712 12.6927 8.15874 13.9819 8.39446 15.827L8.60106 16.8815H8.60118Z" fill="#DF3A32"/>
<defs>
<linearGradient id="paint0_linear_404_172" x1="15.0494" y1="9.62014" x2="15.0494" y2="20.3118" gradientUnits="userSpaceOnUse">
<stop stop-color="#86BBE5"/>
<stop offset="1" stop-color="#1072BA"/>
</linearGradient>
</defs>
</svg>

<svg width="31" height="30" fill="none" xmlns="http://www.w3.org/2000/svg"><path d="M15.087.003s8.841-.396 13.529 8.46H14.334s-2.695-.087-4.997 3.171c-.662 1.368-1.372 2.776-.575 5.552-1.149-1.94-6.1-10.531-6.1-10.531S6.153.353 15.086.003z" fill="#EF3F36"/><path d="M28.157 22.483s-4.08 7.83-14.116 7.443l7.143-12.324s1.426-2.281-.256-5.898c-.856-1.256-1.728-2.57-4.54-3.27 2.262-.02 12.203 0 12.203 0s3.725 6.166-.434 14.05z" fill="#FCD900"/><path d="M2.078 22.545s-4.766-7.435.591-15.903C3.905 8.78 9.81 18.966 9.81 18.966s1.272 2.372 5.253 2.726c1.517-.111 3.096-.206 5.113-2.277-1.112 1.96-6.101 10.527-6.101 10.527s-7.226.132-11.996-7.397z" fill="#61BC5B"/><path d="M14.037 30l2.008-8.353s2.208-.173 4.06-2.195C18.955 21.466 14.037 30 14.037 30z" fill="#5AB055"/><path d="M8.357 15.094c0-3.682 2.997-6.668 6.693-6.668 3.695 0 6.692 2.986 6.692 6.668s-2.997 6.668-6.692 6.668c-3.696-.004-6.693-2.986-6.693-6.668z" fill="#fff"/><path d="M9.478 15.094c0-3.064 2.492-5.552 5.572-5.552 3.075 0 5.572 2.483 5.572 5.552 0 3.064-2.493 5.552-5.572 5.552-3.076 0-5.572-2.488-5.572-5.552z" fill="url(#paint0_linear_404_172)"/><path d="M28.587 8.438l-8.271 2.418s-1.249-1.825-3.931-2.418c2.327-.012 12.202 0 12.202 0z" fill="#EACA05"/><path d="M8.601 16.881C7.44 14.877 2.661 6.655 2.661 6.655l6.126 6.038s-.628 1.289-.393 3.134l.207 1.054z" fill="#DF3A32"/><defs><linearGradient id="paint0_linear_404_172" x1="15.049" y1="9.62" x2="15.049" y2="20.312" gradientUnits="userSpaceOnUse"><stop stop-color="#86BBE5"/><stop offset="1" stop-color="#1072BA"/></linearGradient></defs></svg>
